X: 9836
T: Dennis Watson's
R: reel
M: 4/4
K: Dmajor
dB|:AF3 GABd|AGFD E2FE|D3E FAAA|GABd (3Bcdef|
d2dA GABd|AGFD E2FG|A3G FDDF|1 EDEF D3B:|2 EDEF D3g||
|:fedf eedB|AF3 EFDE|F2FD ABdf|
[1 eedf e2eg|fedf eedB|AGFD E2FG|A3G FDDF|EDEF D3g:|
[2 eedf ezfg|afge fgfe|defd fgfe|d2dA FDDF|EDEF D3B||

